src/assets/verifiedCheck.svg

<svg width="26" height="26" viewBox="0 0 26 26" fill="none" xmlns="http://www.w3.org/2000/svg">
<path d="M16.9623 8.99047L16.9623 8.99048L11.1561 15.3155L9.03774 13.0078C8.7434 12.6871 8.25664 12.6872 7.9623 13.0078L7.96229 13.0078C7.67923 13.3161 7.67924 13.8078 7.96229 14.1162L7.96229 14.1162L10.6184 17.0096C10.9127 17.3303 11.3997 17.33 11.6939 17.0096L18.0377 10.0989C18.3208 9.79057 18.3207 9.29881 18.0377 8.99049C17.7434 8.66983 17.2566 8.66985 16.9623 8.99047Z" fill="#30DB9E" stroke="#30DB9E" stroke-width="0.5"/>
<circle cx="13" cy="13" r="12" stroke="#30DB9E" stroke-width="2"/>
</svg>

<svg width="26" height="26" fill="none" xmlns="http://www.w3.org/2000/svg"><path d="M16.962 8.99h0l-5.806 6.325-2.118-2.307a.721.721 0 00-1.076 0h0a.83.83 0 000 1.108h0l2.656 2.894c.295.32.782.32 1.076 0l6.344-6.911a.83.83 0 000-1.109.721.721 0 00-1.076 0z" fill="#30DB9E" stroke="#30DB9E" stroke-width=".5"/><circle cx="13" cy="13" r="12" stroke="#30DB9E" stroke-width="2"/></svg>
